public/images/logo-white.svg

<?xml version="1.0" encoding="UTF-8" standalone="no"?>
<svg width="186px" height="26px" viewBox="0 0 186 26" version="1.1" xmlns="http://www.w3.org/2000/svg" xmlns:xlink="http://www.w3.org/1999/xlink">
    <!-- Generator: Sketch 39.1 (31720) - http://www.bohemiancoding.com/sketch -->
    <title>Page 1</title>
    <desc>Created with Sketch.</desc>
    <defs>
        <polygon id="path-1" points="0 25.1256005 185.516182 25.1256005 185.516182 0.00382346095 0 0.00382346095"></polygon>
    </defs>
    <g id="Page-1" stroke="none" stroke-width="1" fill="none" fill-rule="evenodd">
        <g id="Monitaure_desktop-Copy" transform="translate(-628.000000, -46.000000)">
            <g id="Page-1" transform="translate(628.000000, 46.000000)">
                <g id="Group-12" transform="translate(0.000000, 0.542221)">
                    <path d="M69.2727273,2.73300989 L69.2727273,16.889101 L58.4705455,2.73300989 L57.8727273,2.73300989 C57.144,3.8254273 56.1818182,5.65194922 53.4545455,7.02566412 L53.4545455,24.5813582 L58.9090909,24.5813582 L58.9090909,11.0026097 L69.1369091,24.5813582 L74.1818182,24.5813582 L74.1818182,2.73300989 L69.2727273,2.73300989 L69.2727273,2.73300989 Z" id="Fill-1" fill="#FFFFFF"></path>
                    <path d="M20.7978545,2.73300989 L17.7847636,2.73300989 L12.1556727,14.6927958 L6.55767273,2.73300989 L0.000218181818,2.73300989 L0.000218181818,24.5813582 L4.90930909,24.5813582 L4.90930909,10.9408881 L10.6944,22.9427321 L13.5858545,22.9427321 L20.1820364,10.9408881 L20.1820364,24.5813582 L25.0911273,24.5813582 L25.0911273,7.10978026 C23.4547636,5.71476322 21.5407636,3.8254273 20.7978545,2.73300989" id="Fill-3" fill="#FFFFFF"></path>
                    <mask id="mask-2" fill="white">
                        <use xlink:href="#path-1"></use>
                    </mask>
                    <g id="Clip-6"></g>
                    <polygon id="Fill-5" fill="#FFFFFF" mask="url(#mask-2)" points="78.354 24.6432983 83.2047273 24.6432983 83.2047273 2.87360401 78.354 2.87360401"></polygon>
                    <polygon id="Fill-7" fill="#FFFFFF" mask="url(#mask-2)" points="96.7758 7.07826402 96.7758 24.6432436 91.9239818 24.6432436 91.9239818 7.07826402 85.7663455 7.07826402 85.7663455 2.87354939 102.933436 2.87354939 102.933436 7.07826402"></polygon>
                    <path d="M131.256982,19.0217729 C132.065345,20.0289817 133.154073,20.5320399 134.523164,20.5320399 C135.891164,20.5320399 136.974436,20.0289817 137.772982,19.0217729 C138.569891,18.0156564 138.969709,16.6392105 138.969709,14.8957123 L138.969709,2.87365863 L143.821527,2.87365863 L143.821527,15.0513818 C143.821527,18.2068295 142.950982,20.6309037 141.2088,22.3230583 C139.467164,24.0157591 137.238982,24.8612902 134.523164,24.8612902 C131.806255,24.8612902 129.572618,24.0097508 127.820073,22.3077644 C126.068618,20.6057781 125.192618,18.1866197 125.192618,15.0513818 L125.192618,2.87365863 L130.044436,2.87365863 L130.044436,14.8957123 C130.044436,16.6392105 130.448618,18.0156564 131.256982,19.0217729" id="Fill-8" fill="#FFFFFF" mask="url(#mask-2)"></path>
                    <path d="M159.662127,12.684441 C160.263218,12.1447868 160.564309,11.2877853 160.564309,10.114529 C160.564309,8.9423651 160.252855,8.13779967 159.630491,7.70192512 C159.009218,7.26605057 157.921036,7.0481133 156.3654,7.0481133 L152.726127,7.0481133 L152.726127,13.4939223 L156.272127,13.4939223 C157.930855,13.4939223 159.059945,13.2240952 159.662127,12.684441 M165.508309,10.0992351 C165.508309,13.5878702 164.1294,15.8398887 161.373218,16.8574755 L166.876309,24.6431344 L160.906309,24.6431344 L156.086127,17.6986369 L152.726127,17.6986369 L152.726127,24.6431344 L147.8754,24.6431344 L147.8754,2.87344015 L156.116127,2.87344015 C159.496309,2.87344015 161.905582,3.44532066 163.347218,4.58689686 C164.788309,5.72847306 165.508309,7.56591915 165.508309,10.0992351" id="Fill-9" fill="#FFFFFF" mask="url(#mask-2)"></path>
                    <polygon id="Fill-10" fill="#FFFFFF" mask="url(#mask-2)" points="185.1744 2.87365863 185.1744 7.20236264 174.350945 7.20236264 174.350945 11.6872823 184.086218 11.6872823 184.086218 15.8297292 174.350945 15.8297292 174.350945 20.3457828 185.515855 20.3457828 185.515855 24.6433529 169.500218 24.6433529 169.500218 2.87365863"></polygon>
                    <path d="M109.098164,18.0184967 L112.835073,9.36436595 L115.739618,16.1236987 C113.127436,16.4989441 110.907436,17.2172085 109.098164,18.0184967 L109.098164,18.0184967 Z M115.167436,2.73284603 L110.471073,2.73284603 L101.078891,24.5811943 L106.662709,24.5811943 C107.753618,24.0349856 111.594709,20.8839076 117.570164,20.3316906 L119.396345,24.5811943 L124.559618,24.5811943 L115.167436,2.73284603 Z" id="Fill-11" fill="#FFFFFF" mask="url(#mask-2)"></path>
                </g>
                <path d="M42.8432727,3.15528384 C41.7567273,2.81444961 40.6009091,2.63037727 39.4025455,2.63037727 L39.4025455,2.63037727 C38.2429091,2.63037727 37.1236364,2.80407164 36.0676364,3.12414994 L36.0676364,3.12414994 C35.322,3.2344841 29.85,3.88447247 21.6965455,0.546044845 L21.6965455,0.546044845 C21.6965455,0.546044845 22.6461818,5.4296969 29.7616364,7.8696112 L29.7616364,7.8696112 C28.5856364,9.6764696 27.9,11.8318092 27.9,14.1488265 L27.9,14.1488265 C27.9,20.5105193 33.0501818,25.6678219 39.4025455,25.6678219 L39.4025455,25.6678219 C45.7554545,25.6678219 50.9050909,20.5105193 50.9050909,14.1488265 L50.9050909,14.1488265 C50.9050909,11.8154229 50.2101818,9.6453357 49.0194545,7.83083038 L49.0194545,7.83083038 C56.0334545,5.37835328 56.9749091,0.546044845 56.9749091,0.546044845 L56.9749091,0.546044845 C49.4176364,3.64031717 44.1649091,3.30822228 42.8432727,3.15528384 M32.34,14.2116405 C32.34,10.305702 35.502,7.13933015 39.4025455,7.13933015 L39.4025455,7.13933015 C43.3030909,7.13933015 46.4656364,10.305702 46.4656364,14.2116405 L46.4656364,14.2116405 C46.4656364,18.117579 43.3030909,21.2844971 39.4025455,21.2844971 L39.4025455,21.2844971 C35.502,21.2844971 32.34,18.117579 32.34,14.2116405" id="Fill-13" fill="#FFFFFF"></path>
            </g>
        </g>
    </g>
</svg>

<svg width="186" height="26" viewBox="0 0 186 26" xmlns="http://www.w3.org/2000/svg" xmlns:xlink="http://www.w3.org/1999/xlink"><title>Page 1</title><defs><path id="a" d="M0 25.126h185.516V.004H0z"/></defs><g fill="none" fill-rule="evenodd"><g transform="translate(0 .542)"><path d="M69.273 2.733v14.156L58.47 2.733h-.598c-.729 1.092-1.691 2.919-4.418 4.293V24.58h5.454V11.003L69.137 24.58h5.045V2.733h-4.91zM20.798 2.733h-3.013l-5.63 11.96-5.597-11.96H0v21.848h4.91v-13.64l5.784 12.002h2.892l6.596-12.002v13.64h4.91V7.11c-1.637-1.395-3.551-3.285-4.294-4.377" fill="#FFF"/><mask id="b" fill="#fff"><use xlink:href="#a"/></mask><path fill="#FFF" mask="url(#b)" d="M78.354 24.643h4.85V2.873h-4.85zM96.776 7.078v17.565h-4.852V7.078h-6.158V2.874h17.167v4.204zM131.257 19.022c.808 1.007 1.897 1.51 3.266 1.51 1.368 0 2.451-.503 3.25-1.51.797-1.006 1.197-2.383 1.197-4.126V2.874h4.852V15.05c0 3.156-.871 5.58-2.613 7.272-1.742 1.693-3.97 2.538-6.686 2.538-2.717 0-4.95-.851-6.703-2.553-1.751-1.702-2.627-4.121-2.627-7.257V2.874h4.851v12.022c0 1.743.405 3.12 1.213 4.126M159.662 12.684c.601-.54.902-1.396.902-2.57 0-1.172-.311-1.976-.934-2.412-.62-.436-1.709-.654-3.265-.654h-3.639v6.446h3.546c1.659 0 2.788-.27 3.39-.81m5.846-2.585c0 3.489-1.379 5.74-4.135 6.758l5.503 7.786h-5.97l-4.82-6.944h-3.36v6.944h-4.85V2.873h8.24c3.38 0 5.79.572 7.231 1.714 1.441 1.141 2.161 2.979 2.161 5.512M185.174 2.874v4.328h-10.823v4.485h9.735v4.143h-9.735v4.516h11.165v4.297H169.5V2.873zM109.098 18.018l3.737-8.654 2.905 6.76a25.23 25.23 0 0 0-6.642 1.894zm6.07-15.285h-4.697L101.08 24.58h5.584c1.09-.546 4.932-3.697 10.907-4.25l1.826 4.25h5.164l-9.393-21.848z"/></g><path d="M42.843 3.155a11.478 11.478 0 0 0-3.44-.525c-1.16 0-2.28.174-3.335.494-.746.11-6.218.76-14.371-2.578 0 0 .95 4.884 8.065 7.324a11.471 11.471 0 0 0-1.862 6.279c0 6.362 5.15 11.519 11.503 11.519 6.352 0 11.502-5.157 11.502-11.52 0-2.333-.695-4.503-1.886-6.317C56.033 5.378 56.975.546 56.975.546c-7.557 3.094-12.81 2.762-14.132 2.61M32.34 14.211c0-3.906 3.162-7.073 7.063-7.073 3.9 0 7.063 3.167 7.063 7.073 0 3.906-3.163 7.072-7.063 7.072-3.901 0-7.063-3.166-7.063-7.072" fill="#FFF"/></g></svg>
